!!!COM: Palestrina, Giovanni Perluigi da
!!!OPR: Fratres Ego Enim Accepi
!!!OTL: Credo
**kern	**kern	**kern	**kern	**kern	**kern	**kern	**kern
*ICvox	*ICvox	*ICvox	*ICvox	*ICvox	*ICvox	*ICvox	*ICvox
*Ibass	*Itenor	*Icalto	*Icant	*Ibass	*Itenor	*Icalto	*Icant
!Bassus	!Tenor	!Altus	!Cantus	!Bassus	!Tenor	!Altus	!Cantus
*clefF4	*clefGv2	*clefG2	*clefG2	*clefF4	*clefGv2	*clefG2	*clefG2
*k[b-]	*k[b-]	*k[b-]	*k[b-]	*k[b-]	*k[b-]	*k[b-]	*k[b-]
*G:dor	*G:dor	*G:dor	*G:dor	*G:dor	*G:dor	*G:dor	*G:dor
*M4/2	*M4/2	*M4/2	*M4/2	*M4/2	*M4/2	*M4/2	*M4/2
=1	=1	=1	=1	=1	=1	=1	=1
0r	0r	0r	0r	0r	0r	0g	1r
.	.	.	.	.	.	.	[1dd
=2	=2	=2	=2	=2	=2	=2	=2
0r	0r	0r	0r	0r	0r	1d	1dd]
.	.	.	.	.	.	2r	1g
.	.	.	.	.	.	2g	.
=3	=3	=3	=3	=3	=3	=3	=3
0r	0r	0r	0r	0r	0r	2g	2r
.	.	.	.	.	.	2f	2dd
.	.	.	.	.	.	2b-	2dd
.	.	.	.	.	.	4a	2cc
.	.	.	.	.	.	4g	.
=4	=4	=4	=4	=4	=4	=4	=4
0r	0r	0r	0r	1r	0r	2a	2.ff
.	.	.	.	.	.	2.b-	.
.	.	.	.	.	.	.	4ee
.	.	.	.	[1G	.	.	4dd
.	.	.	.	.	.	4a	4cc
.	.	.	.	.	.	4g	[2b-
.	.	.	.	.	.	4f	.
=5	=5	=5	=5	=5	=5	=5	=5
0r	0r	0r	0r	1G]	0d	4g	4b-]
.	.	.	.	.	.	4a	4a
.	.	.	.	.	.	4b-	1g
.	.	.	.	.	.	4g	.
.	.	.	.	1D	.	1a	.
.	.	.	.	.	.	.	2f#
=6	=6	=6	=6	=6	=6	=6	=6
0r	0r	0r	0r	2r	1G	1b-	4g
.	.	.	.	.	.	.	4a
.	.	.	.	2G	.	.	4b-
.	.	.	.	.	.	.	4cc
.	.	.	.	2G	2r	2b-	4dd
.	.	.	.	.	.	.	4ee
.	.	.	.	2F	2d	4a	[2ff
.	.	.	.	.	.	4g	.
=7	=7	=7	=7	=7	=7	=7	=7
0r	0r	0r	0r	2B-	2d	2f	4ff]
.	.	.	.	.	.	.	4dd
.	.	.	.	4A	2c	2a	2.ee
.	.	.	.	4G	.	.	.
.	.	.	.	2.F	1f	1a	.
.	.	.	.	.	.	.	4dd
.	.	.	.	.	.	.	[2dd
.	.	.	.	4G	.	.	.
=8	=8	=8	=8	=8	=8	=8	=8
0r	0r	0r	0r	1A	1e	1a	2dd]
.	.	.	.	.	.	.	2cc#
.	.	.	.	[1B-	2d	2r	1dd
.	.	.	.	.	2d	2f	.
=9	=9	=9	=9	=9	=9	=9	=9
0r	0r	0r	0r	1B-]	2d	2f	2r
.	.	.	.	.	2d	2f	2dd
.	.	.	.	1G	2.g	1b-	2dd
.	.	.	.	.	.	.	2dd
.	.	.	.	.	4f	.	.
=10	=10	=10	=10	=10	=10	=10	=10
0r	0r	0r	0r	2G	2e	2g	2.gg
.	.	.	.	2G	2d	2g	.
.	.	.	.	.	.	.	4ff
.	.	.	.	2.c	1e	2g	4ee
.	.	.	.	.	.	.	4dd
.	.	.	.	.	.	2g	[2cc
.	.	.	.	4B-	.	.	.
=11	=11	=11	=11	=11	=11	=11	=11
0r	0r	0r	0r	4A	[0f	1cc	2cc]
.	.	.	.	4G	.	.	.
.	.	.	.	1F	.	.	2a
.	.	.	.	.	.	2a	2cc
.	.	.	.	2D	.	[2b-	[2dd
=12	=12	=12	=12	=12	=12	=12	=12
0r	0r	0r	0r	1F	1f]	2b-]	4dd]
.	.	.	.	.	.	.	4cc
.	.	.	.	.	.	2.a	4cc
.	.	.	.	.	.	.	8b-
.	.	.	.	.	.	.	8a
.	.	.	.	1G	[1d	.	1b-
.	.	.	.	.	.	4g	.
.	.	.	.	.	.	[2g	.
=13	=13	=13	=13	=13	=13	=13	=13
2r	2r	2r	0r	1D	1d]	2g]	1a
2d	2d	2a	.	.	.	2f#	.
2c#	2e	2a	.	1r	1r	1r	1r
[2d	[2f	[2b-	.	.	.	.	.
=14	=14	=14	=14	=14	=14	=14	=14
4d]	4f]	4b-]	0r	0r	0r	0r	0r
4c	4e	4a	.	.	.	.	.
2B-	2d	2g	.	.	.	.	.
2A	2e	2cc	.	.	.	.	.
2A	2f#	2cc	.	.	.	.	.
=15	=15	=15	=15	=15	=15	=15	=15
1G	4g	2b-	1dd	0r	0r	0r	0r
.	8f	.	.	.	.	.	.
.	8e	.	.	.	.	.	.
.	4d	2g	.	.	.	.	.
.	4e	.	.	.	.	.	.
1r	4f	2a	2cc	.	.	.	.
.	4e	.	.	.	.	.	.
.	4d	[2b-	[2dd	.	.	.	.
.	4c	.	.	.	.	.	.
=16	=16	=16	=16	=16	=16	=16	=16
0r	2.B-	4b-]	4dd]	0r	0r	0r	0r
.	.	4a	4cc	.	.	.	.
.	.	2g	2b-	.	.	.	.
.	4c	.	.	.	.	.	.
.	1d	2g	2a	.	.	.	.
.	.	2f#	2a	.	.	.	.
=17	=17	=17	=17	=17	=17	=17	=17
1G	2r	2g	2g	0r	0r	0r	0r
.	2G	2b-	2dd	.	.	.	.
2F#	2A	2a	2dd	.	.	.	.
[2G	2B-	[2g	[2dd	.	.	.	.
=18	=18	=18	=18	=18	=18	=18	=18
2G]	2G	2g]	2dd]	0r	0r	0r	0r
2E	1c	2g	2ee	.	.	.	.
2D	.	2f	2.ff	.	.	.	.
2D	2B	2d	.	.	.	.	.
.	.	.	4ff	.	.	.	.
=19	=19	=19	=19	=19	=19	=19	=19
2C	2c	1g	1ee	0r	0r	0r	0r
2c	2e	.	.	.	.	.	.
2B	2d	2r	1r	.	.	.	.
[2c	[2e	[2g	.	.	.	.	.
=20	=20	=20	=20	=20	=20	=20	=20
2c]	2e]	2g]	1cc	0r	0r	0r	0r
2A	2c	2f#	.	.	.	.	.
2G	2d	1g	2b	.	.	.	.
2c	2e	.	[2cc	.	.	.	.
=21	=21	=21	=21	=21	=21	=21	=21
1F	1f	2a	2cc]	0r	0r	0r	0r
.	.	1f	2a	.	.	.	.
1r	[1c	.	2g	.	.	.	.
.	.	2e	2g	.	.	.	.
=22	=22	=22	=22	=22	=22	=22	=22
0F	1c]	1f	1f	0F	2.A	0f	1.cc
.	.	.	.	.	4B-	.	.
.	1A	[1a	[1cc	.	[1c	.	.
.	.	.	.	.	.	.	[2a
=23	=23	=23	=23	=23	=23	=23	=23
0A	1F	1a]	1cc]	0F	1c]	2f	4a]
.	.	.	.	.	.	.	4b-
.	.	.	.	.	.	2.a	1cc
.	[1f	1cc	1a	.	1F	.	.
.	.	.	.	.	.	4g	.
.	.	.	.	.	.	4f	[2ff
.	.	.	.	.	.	4e	.
=24	=24	=24	=24	=24	=24	=24	=24
0B-	1f]	1b-	0dd	0BB-	2.f	4d	4ff]
.	.	.	.	.	.	4c	4ee
.	.	.	.	.	.	4B-	4dd
.	.	.	.	.	4e	4c	4cc
.	1f	1b-	.	.	4d	4d	1b-
.	.	.	.	.	4c	4e	.
.	.	.	.	.	2B-	[2f	.
=25	=25	=25	=25	=25	=25	=25	=25
2F	2r	2r	2cc	1F	1c	2f]	1a
2A	2c	2a	2cc	.	.	2f	.
2d	2d	2a	2ff	2r	1r	2r	2r
2c#	2A	2a	2ee	2A	.	2a	2ee
=26	=26	=26	=26	=26	=26	=26	=26
2d	2a	2f	2dd	2d	2r	2a	2ff
2A	2a	2a	2ee	2c#	2A	2a	2ee
1D	2r	1a	2.ff	2.d	2d	1f	1dd
.	2d	.	.	.	2d	.	.
.	.	.	4ee	4c	.	.	.
=27	=27	=27	=27	=27	=27	=27	=27
2G	2d	2b-	4dd	2B-	4G	1g	1dd
.	.	.	4cc	.	4A	.	.
1G	4G	1b-	4b-	2G	4B-	.	.
.	4A	.	4a	.	4c	.	.
.	4B-	.	2g	2r	2d	2r	2r
.	4G	.	.	.	.	.	.
2F#	2d	2a	2a	2D	2d	2a	2dd
=28	=28	=28	=28	=28	=28	=28	=28
4G	2d	1g	2d	2G	1d	2.b-	2dd
4A	.	.	.	.	.	.	.
4B-	2G	.	2dd	1G	.	.	1b-
4c	.	.	.	.	.	4a	.
2d	2r	2r	1dd	.	1d	2g	.
2D	2d	2a	.	2F#	.	[2a	2a
=29	=29	=29	=29	=29	=29	=29	=29
1G	1B-	1d	2r	4G	1.d	2a]	4b-
.	.	.	.	4A	.	.	4cc
.	.	.	1dd	4B-	.	1g	4dd
.	.	.	.	4c	.	.	4ee-
2D	2A	2a	.	1d	.	.	[1dd
2D	2A	2d	2a	.	2d	2f#	.
=30	=30	=30	=30	=30	=30	=30	=30
0G	1G	2.d	2b-	2r	2.B-	2g	0dd]
.	.	.	2g	1G	.	1b-	.
.	.	4c	.	.	4A	.	.
.	1r	4B-	1g	.	2G	.	.
.	.	4A	.	.	.	.	.
.	.	2G	.	2G	[2d	2b-	.
=31	=31	=31	=31	=31	=31	=31	=31
0r	0r	0r	0r	2F	2d]	2a	2r
.	.	.	.	2D	2d	2f	1ff
.	.	.	.	1F	2c	1a	.
.	.	.	.	.	2A	.	2ff
=32	=32	=32	=32	=32	=32	=32	=32
0r	0r	0r	0r	2C	4c	1g	2ee
.	.	.	.	.	4d	.	.
.	.	.	.	1c	4e	.	2cc
.	.	.	.	.	4f	.	.
.	.	.	.	.	1g	2r	1ee
.	.	.	.	2c	.	[2g	.
=33	=33	=33	=33	=33	=33	=33	=33
0r	0r	0r	0r	2B-	1G	2g]	2dd
.	.	.	.	2G	.	2g	1dd
.	.	.	.	1B-	1r	2f	.
.	.	.	.	.	.	2d	2dd
=34	=34	=34	=34	=34	=34	=34	=34
0r	0r	0r	0r	2c	1.g	2.e	2cc
.	.	.	.	2c	.	.	2g
.	.	.	.	.	.	4f	.
.	.	.	.	1G	.	4g	4b-
.	.	.	.	.	.	4a	4cc
.	.	.	.	.	2g	4b-	4dd
.	.	.	.	.	.	4g	4b-
=35	=35	=35	=35	=35	=35	=35	=35
0r	0r	0r	0r	0r	2f	2a	2cc
.	.	.	.	.	2d	2.b-	2.dd
.	.	.	.	.	1f	.	.
.	.	.	.	.	.	4a	4cc
.	.	.	.	.	.	[2a	4cc
.	.	.	.	.	.	.	8b-
.	.	.	.	.	.	.	8a
=36	=36	=36	=36	=36	=36	=36	=36
1r	1r	0r	0r	0r	2g	4a]	2b-
.	.	.	.	.	.	4g	.
.	.	.	.	.	2g	1g	2b-
2r	2r	.	.	.	1d	.	1a
2d	2d	.	.	.	.	2f#	.
=37	=37	=37	=37	=37	=37	=37	=37
2c	2e	1r	1r	0r	0r	0r	0r
2A	2f	.	.	.	.	.	.
1B-	2g	2r	2r	.	.	.	.
.	4f	2d	2dd	.	.	.	.
.	4g	.	.	.	.	.	.
=38	=38	=38	=38	=38	=38	=38	=38
1A	1a	2e	2cc	0r	0r	0r	0r
.	.	2f	2a	.	.	.	.
1G	2d	1g	1b-	.	.	.	.
.	2B-	.	.	.	.	.	.
=39	=39	=39	=39	=39	=39	=39	=39
2F	2c	1a	2.a	0r	0r	0r	0r
2D	2d	.	.	.	.	.	.
.	.	.	8g	.	.	.	.
.	.	.	8f	.	.	.	.
2E	2d	2r	2g	.	.	.	.
2E	2c#	2g	2g	.	.	.	.
=40	=40	=40	=40	=40	=40	=40	=40
1D	1d	2f	2a	2r	2r	0r	0r
.	.	2d	2b-	2d	2f	.	.
1r	1r	2e	2cc	2c	2g	.	.
.	.	2e	2cc	2A	2a	.	.
=41	=41	=41	=41	=41	=41	=41	=41
0r	0r	1d	1dd	2B-	2a	2r	1dd
.	.	.	.	2B-	2g	2d	.
.	.	1r	1r	1A	1a	2e	2cc
.	.	.	.	.	.	2f	2a
=42	=42	=42	=42	=42	=42	=42	=42
0r	0r	0r	0r	1G	2r	2g	2b-
.	.	.	.	.	1d	2g	2b-
.	.	.	.	1A	.	2e	1a
.	.	.	.	.	2c	[2a	.
=43	=43	=43	=43	=43	=43	=43	=43
0r	0r	0r	0r	1B-	1d	2a]	2r
.	.	.	.	.	.	2g	1dd
.	.	.	.	1A	1e	1a	.
.	.	.	.	.	.	.	2cc
=44	=44	=44	=44	=44	=44	=44	=44
0r	0r	0r	0r	2r	1f	4d	1dd
.	.	.	.	.	.	4e	.
.	.	.	.	2D	.	4f	.
.	.	.	.	.	.	4g	.
.	.	.	.	2D	2f	2a	2dd
.	.	.	.	2C#	2e	2a	2ee
=45	=45	=45	=45	=45	=45	=45	=45
0r	0r	0r	0r	4D	1.a	4f	1ff
.	.	.	.	4E	.	4g	.
.	.	.	.	4F	.	4a	.
.	.	.	.	4G	.	4b-	.
.	.	.	.	4A	.	2cc	2ff
.	.	.	.	4B-	.	.	.
.	.	.	.	2c	2g	2cc	[2ee
=46	=46	=46	=46	=46	=46	=46	=46
0r	0r	0r	0r	2.d	2.f	0a	4ee]
.	.	.	.	.	.	.	4dd
.	.	.	.	.	.	.	1dd
.	.	.	.	8c	8e	.	.
.	.	.	.	8B-	8d	.	.
.	.	.	.	1A	1e	.	.
.	.	.	.	.	.	.	2cc#
=47	=47	=47	=47	=47	=47	=47	=47
2r	2r	2r	2r	1D	1d	1a	1dd
1D	1d	1f#	1a	.	.	.	.
.	.	.	.	1r	1r	1r	1r
2D	2d	2f#	2a	.	.	.	.
=48	=48	=48	=48	=48	=48	=48	=48
2G	2d	2g	2b	0r	0r	0r	0r
2G	2d	2g	2b	.	.	.	.
4F	2f	1a	[1cc	.	.	.	.
4G	.	.	.	.	.	.	.
4A	4e	.	.	.	.	.	.
4B-	4d	.	.	.	.	.	.
=49	=49	=49	=49	=49	=49	=49	=49
1c	1e	1g	1cc]	1r	1r	1r	1r
1G	1d	1g	1b	2r	2r	2r	2r
.	.	.	.	[2G	[2d	[2g	[2b
=50	=50	=50	=50	=50	=50	=50	=50
0r	0r	0r	0r	2G]	2d]	2g]	2b]
.	.	.	.	2G	2d	2g	2b
.	.	.	.	2c	2e	2g	2cc
.	.	.	.	2c	2e	2a	2cc
=51	=51	=51	=51	=51	=51	=51	=51
0r	0r	0r	0r	4B-	2f	1.b-	2.dd
.	.	.	.	4A	.	.	.
.	.	.	.	4G	2g	.	.
.	.	.	.	4A	.	.	4cc
.	.	.	.	4B-	2.f	.	4dd
.	.	.	.	4c	.	.	4ee
.	.	.	.	[2d	.	2a	[2ff
.	.	.	.	.	4g	.	.
=52	=52	=52	=52	=52	=52	=52	=52
0r	0r	0r	0r	2d]	1a	2d	2ff]
.	.	.	.	2c	.	2e	2ee
.	.	.	.	1B-	1d	2f	1dd
.	.	.	.	.	.	2g	.
=53	=53	=53	=53	=53	=53	=53	=53
2r	2r	2r	2r	1A	1e	1a	1cc#
2A	2e	2a	2cc#	.	.	.	.
2G	2g	2b-	2dd	1r	1r	1r	1r
[2F	[2a	[2cc	[2ff	.	.	.	.
=54	=54	=54	=54	=54	=54	=54	=54
4F]	4a]	4cc]	4ff]	0r	0r	0r	0r
4F	4a	4cc	4ff	.	.	.	.
2c	2g	2cc	2ee	.	.	.	.
2d	2f#	2a	2dd	.	.	.	.
2G	2g	2b-	2dd	.	.	.	.
=55	=55	=55	=55	=55	=55	=55	=55
1A	1e	1a	1cc#	2r	2r	2r	2r
.	.	.	.	2A	2e	2a	2cc#
1r	1r	1r	1r	2d	2f#	2a	2dd
.	.	.	.	2G	2g	2b-	2dd
=56	=56	=56	=56	=56	=56	=56	=56
0r	0r	0r	0r	1d	4f	1a	2dd
.	.	.	.	.	4g	.	.
.	.	.	.	.	4a	.	2.dd
.	.	.	.	.	4f	.	.
.	.	.	.	4G	2g	1b-	.
.	.	.	.	4A	.	.	4cc
.	.	.	.	4B-	[2d	.	4dd
.	.	.	.	4c	.	.	4ee
=57	=57	=57	=57	=57	=57	=57	=57
2r	2r	2r	1r	2.d	4d]	1a	4ff
.	.	.	.	.	4e	.	4ee
2D	2d	2f	.	.	4f	.	1dd
.	.	.	.	4c	4e	.	.
2G	2d	2g	2r	2B	2d	[1g	.
2C	[2g	2e	2cc	2c	2e	.	[2cc
=58	=58	=58	=58	=58	=58	=58	=58
1G	4g]	1g	2dd	1G	1d	0g]	2cc]
.	4f	.	.	.	.	.	.
.	2d	.	1g	.	.	.	2b
4C	1e	4e	.	1c	1c	.	1cc
4D	.	4f	.	.	.	.	.
4E	.	4g	[2cc	.	.	.	.
4F	.	4a	.	.	.	.	.
=59	=59	=59	=59	=59	=59	=59	=59
2.G	1d	2g	2cc]	0r	0r	0r	0r
.	.	1g	1b-	.	.	.	.
4F	.	.	.	.	.	.	.
2E	1c	.	.	.	.	.	.
2F	.	[2f	2a	.	.	.	.
=60	=60	=60	=60	=60	=60	=60	=60
1C	1c	2f]	1g	0r	0r	0r	0r
.	.	2e	.	.	.	.	.
[1F	[1c	[1f	[1a	.	.	.	.
=61	=61	=61	=61	=61	=61	=61	=61
1F]	1c]	1f]	1a]	1F	1f	1a	1cc
1BB-	2r	2r	1dd	1B-	2.d	1f	1b-
.	[2B-	2d	.	.	.	.	.
.	.	.	.	.	4c	.	.
=62	=62	=62	=62	=62	=62	=62	=62
1B-	2B-]	2.f	1dd	1BB-	1B-	1d	1b-
.	1f	.	.	.	.	.	.
.	.	4g	.	.	.	.	.
[1F	.	4a	2.cc	2.F	4c	1f	2.a
.	.	4b-	.	.	4B-	.	.
.	[2c	[2cc	.	.	4A	.	.
.	.	.	4b-	4G	4G	.	4b-
=63	=63	=63	=63	=63	=63	=63	=63
1F]	2c]	2cc]	2a	1A	1F	[0f	1cc
.	2.F	2a	1ff	.	.	.	.
1BB-	.	2f	.	1B-	2r	.	2.dd
.	8G	.	.	.	.	.	.
.	8A	.	.	.	.	.	.
.	2B-	[2d	[2dd	.	[2f	.	.
.	.	.	.	.	.	.	4ee
=64	=64	=64	=64	=64	=64	=64	=64
2.D	2A	4d]	4dd]	0F	4f]	0f]	0ff
.	.	4e	4cc	.	4e	.	.
.	2.F	2.f	1b-	.	2d	.	.
4E	.	.	.	.	.	.	.
1F	.	.	.	.	1c	.	.
.	4G	4e	.	.	.	.	.
.	2A	2c	2a	.	.	.	.
=65	=65	=65	=65	=65	=65	=65	=65
0BB-	2F	0d	0b-	1B-	1B-	1f	1dd
.	4B-	.	.	.	.	.	.
.	4c	.	.	.	.	.	.
.	4d	.	.	1r	1r	1r	1r
.	4e	.	.	.	.	.	.
.	2f	.	.	.	.	.	.
=66	=66	=66	=66	=66	=66	=66	=66
0r	0r	0r	0r	0B-	0f	0b-	0dd
=67	=67	=67	=67	=67	=67	=67	=67
0r	0r	0r	0r	1F	1f	1a	1cc
.	.	.	.	1G	1d	1g	1b-
=68	=68	=68	=68	=68	=68	=68	=68
0r	0r	0r	0r	1D	1.d	1f#	1a
.	.	.	.	1G	.	1g	1b-
.	.	.	.	.	2e	.	.
=69	=69	=69	=69	=69	=69	=69	=69
1r	1r	1r	1r	0F	0f	0cc	0a
1F	1f	1a	1cc	.	.	.	.
=70	=70	=70	=70	=70	=70	=70	=70
1C	1e	1g	1cc	0r	0r	0r	0r
1D	1d	1f#	1a	.	.	.	.
=71	=71	=71	=71	=71	=71	=71	=71
1G	1d	1g	1b	0r	0r	0r	0r
1F	1f	1a	1cc	.	.	.	.
=72	=72	=72	=72	=72	=72	=72	=72
0C	0e	0g	0cc	2r	2r	2r	2r
.	.	.	.	1c	1g	1cc	1ee
.	.	.	.	2c	2g	2cc	2ee
=73	=73	=73	=73	=73	=73	=73	=73
0r	0r	0r	0r	1F	1a	1cc	1ff
.	.	.	.	1A	1a	1cc	1ee
=74	=74	=74	=74	=74	=74	=74	=74
0r	0r	0r	0r	1B-	1f	1b-	1dd
.	.	.	.	1c	1e	1g	1cc
=75	=75	=75	=75	=75	=75	=75	=75
1r	1r	1r	1r	1G	1d	1g	1b
1C	1c	1e	1gg	1c	1e	1g	1cc
=76	=76	=76	=76	=76	=76	=76	=76
0F	2.A	1c	0ff	2.F	1f	0a	0cc
.	4B-	.	.	4G	.	.	.
.	2c	1f	.	1A	2.c	.	.
.	[2c	.	.	.	.	.	.
.	.	.	.	.	4d	.	.
=77	=77	=77	=77	=77	=77	=77	=77
0C	4c]	2g	0ee	1c	0e	0g	1cc
.	4d	.	.	.	.	.	.
.	4e	4c	.	.	.	.	.
.	4f	4d	.	.	.	.	.
.	2g	4e	.	2.c	.	.	2r
.	.	4f	.	.	.	.	.
.	[2c	2g	.	.	.	.	[2cc
.	.	.	.	4B-	.	.	.
=78	=78	=78	=78	=78	=78	=78	=78
2F	2c]	2f	1r	4A	0f	0a	2cc]
.	.	.	.	4G	.	.	.
2.D	2d	2a	.	4F	.	.	2.ff
.	.	.	.	4E	.	.	.
.	1d	2r	[1a	1D	.	.	.
4E	.	.	.	.	.	.	4ee
4F	.	[2A	.	.	.	.	[2dd
4G	.	.	.	.	.	.	.
=79	=79	=79	=79	=79	=79	=79	=79
0A	1r	4A]	1a]	0AA	0e	0a	2dd]
.	.	4B	.	.	.	.	.
.	.	4c#	.	.	.	.	4cc#
.	.	4d	.	.	.	.	4b
.	[1A	2e	1a	.	.	.	1cc#
.	.	2e	.	.	.	.	.
=80	=80	=80	=80	=80	=80	=80	=80
[0D	1A]	[0f#	[0a	[0D	[0d	[0f#	[0dd
.	1d	.	.	.	.	.	.
=81	=81	=81	=81	=81	=81	=81	=81
0D]	0d	0f#]	0a]	0D]	0d]	0f#]	0dd]
*	*	*	*	*-	*-	*-	*-
!! Crucifixus
*Ibass	*Itenor	*Icalto	*Icant
!Bassus	!Tenor	!Altus	!Cantus
*clefF4	*clefGv2	*clefG2	*clefG2
*k[b-]	*k[b-]	*k[b-]	*k[b-]
*G:dor	*G:dor	*G:dor	*G:dor
*M4/2	*M4/2	*M4/2	*M4/2
=82	=82	=82	=82
1r	0d	0r	0r
[1G	.	.	.
=83	=83	=83	=83
1G]	1e	0r	0r
1A	1f	.	.
=84	=84	=84	=84
1B-	2d	0r	0r
.	2f	.	.
2G	2e	.	.
2B-	2d	.	.
=85	=85	=85	=85
2A	2c	0r	1r
1G	2.B-	.	.
.	.	.	[1dd
.	4G	.	.
2F	2A	.	.
=86	=86	=86	=86
2.G	4B-	0g	1dd]
.	4c	.	.
.	2.d	.	.
4F	.	.	.
1E	.	.	1ee
.	4c#	.	.
.	4c#	.	.
.	4B	.	.
=87	=87	=87	=87
1D	1d	1a	1ff
1r	1B-	1b-	2dd
.	.	.	2ff
=88	=88	=88	=88
0r	2c	2g	2ee
.	1G	1b-	1dd
.	2A	2a	2cc
=89	=89	=89	=89
0r	1B-	2g	2.dd
.	.	2f	.
.	.	.	4cc
.	4G	1g	1b-
.	4A	.	.
.	4B-	.	.
.	4c	.	.
=90	=90	=90	=90
1D	1d	2f#	2a
.	.	2f#	2a
2.G	2r	2.g	2.b-
.	2d	.	.
4G	.	4g	4b-
=91	=91	=91	=91
2F	2.f	2c	1a
4D	.	2d	.
4E	4e	.	.
4F	2d	1a	1r
4G	.	.	.
4A	4c	.	.
4B-	4d	.	.
=92	=92	=92	=92
1c	4e	4g	2r
.	4f	4f	.
.	1g	4e	2g
.	.	4d	.
1A	.	1c	2.cc
.	2f#	.	.
.	.	.	4cc
=93	=93	=93	=93
0G	1g	2r	2b-
.	.	2d	4g
.	.	.	4a
.	2r	2.g	4b-
.	.	.	4cc
.	2G	.	4dd
.	.	4g	4ee
=94	=94	=94	=94
0r	2.d	2f	2.ff
.	.	4d	.
.	4c	4e	4ee
.	2d	4f	2dd
.	.	4g	.
.	2f	4a	4cc
.	.	4b-	4b-
=95	=95	=95	=95
0r	1c	1cc	2a
.	.	.	1g
.	2.d	1a	.
.	.	.	2f#
.	4c	.	.
=96	=96	=96	=96
0E-	1B-	1g	1g
.	1e-	1g	1b-
=97	=97	=97	=97
1BB-	1d	1f	2b-
.	.	.	1b-
[1F	2.c	[1f	.
.	.	.	4a
.	4B-	.	4g
=98	=98	=98	=98
1F]	2c	1f]	1a
.	1d	.	.
1G	.	1d	1b-
.	2B-	.	.
=99	=99	=99	=99
1E-	4c	1e-	1g
.	4B-	.	.
.	1B-	.	.
1F	.	1c	1f
.	2A	.	.
=100	=100	=100	=100
0BB-	0B-	2d	1f
.	.	2d	.
.	.	2.f	2r
.	.	.	2dd
.	.	4g	.
=101	=101	=101	=101
0r	0r	2a	2.ff
.	.	2b-	.
.	.	.	4dd
.	.	2g	2ee
.	.	2f	2ff
=102	=102	=102	=102
0r	1r	2g	2dd
.	.	2a	2cc
.	2r	4d	1dd
.	.	4e	.
.	2d	4f	.
.	.	4g	.
=103	=103	=103	=103
0r	2.f	2a	2cc
.	.	2f	2a
.	4d	.	.
.	2e	2g	1cc
.	2f	2a	.
=104	=104	=104	=104
0r	2d	4f	2b-
.	.	4d	.
.	2c	1g	2cc
.	1d	.	1a
.	.	2f#	.
=105	=105	=105	=105
1r	4G	2g	1b-
.	4A	.	.
.	4B-	2d	.
.	4c	.	.
2r	4d	2.f	[1a
.	4e	.	.
2D	[2f	.	.
.	.	4g	.
=106	=106	=106	=106
2.F	4f]	2a	1a]
.	4e	.	.
.	2d	2f	.
4G	.	.	.
2A	2c	2e	1r
2B-	4G	2d	.
.	4A	.	.
=107	=107	=107	=107
2G	4B-	1d	0r
.	4c	.	.
2F	1d	.	.
2G	.	1e	.
2A	2c#	.	.
=108	=108	=108	=108
2D	2d	2f#	1a
2d	2d	2f#	.
1c	1e	1g	1cc
=109	=109	=109	=109
2B-	2f	2b-	2dd
2F	2f	2a	2cc
1G	1d	[1g	1b-
=110	=110	=110	=110
0D	0d	2g]	1a
.	.	2f#	.
.	.	2r	2r
.	.	2f#	2dd
=111	=111	=111	=111
0r	0r	2g	2b-
.	.	2a	2cc
.	.	2b-	2dd
.	.	2g	2ee
=112	=112	=112	=112
0r	1d	4a	2.ff
.	.	8g	.
.	.	8a	.
.	.	1b-	.
.	.	.	4ee
.	2B-	.	2dd
.	2c	[2a	2cc
=113	=113	=113	=113
1r	2d	2a]	1b-
.	2e	2g	.
2r	4f	2a	1a
.	4g	.	.
2A	[2a	[2cc	.
=114	=114	=114	=114
2F	2a]	2cc]	0r
2G	2.g	2b-	.
2A	.	1a	.
.	4f	.	.
2B-	[2f	.	.
=115	=115	=115	=115
1c	4f]	1g	1r
.	8e	.	.
.	8d	.	.
.	2e	.	.
2d	1f	2r	2r
2d	.	2f	2ff
=116	=116	=116	=116
2c	0r	2g	2ee
2A	.	2a	2cc
1B-	.	2f	1dd
.	.	2d	.
=117	=117	=117	=117
2A	1r	4e	2cc
.	.	4d	.
2A	.	4e	2cc
.	.	4f	.
1G	2r	2g	1b-
.	2g	[2d	.
=118	=118	=118	=118
1D	2f	4d]	2a
.	.	4e	.
.	2d	2f	2dd
1r	1e-	2.g	2b-
.	.	.	2cc
.	.	4a	.
=119	=119	=119	=119
0r	2d	4b-	2dd
.	.	4a	.
.	2d	4a	2.ff
.	.	8g	.
.	.	8f	.
.	1c	1g	.
.	.	.	8ee
.	.	.	8dd
.	.	.	2ee
=120	=120	=120	=120
0r	2d	2r	2ff
.	2B-	2b-	2dd
.	2c	2a	2cc
.	2d	2f	2a
=121	=121	=121	=121
2r	2G	2g	1b-
2G	2B-	2d	.
2F	2c	1f	2a
2D	[2d	.	2a
=122	=122	=122	=122
1E-	2d]	2r	2.g
.	2c	2g	.
.	.	.	4a
2D	1d	2f	4b-
.	.	.	8a
.	.	.	8g
2D	.	2d	4a
.	.	.	4b-
=123	=123	=123	=123
1C	2r	2e-	1cc
.	2g	2e-	.
2D	2f	1d	2a
2BB-	2d	.	2b-
=124	=124	=124	=124
2C	1e-	1c	2.g
2C	.	.	.
.	.	.	4a
2.D	2d	[1f	2b-
.	2d	.	[2a
4E	.	.	.
=125	=125	=125	=125
2F	2.c	2f]	2a]
2C	.	2e-	1g
.	4B-	.	.
1D	1A	1d	.
.	.	.	2f#
=126	=126	=126	=126
0G	0B	0d	0g
!! Et iterum
*Ibass	*Itenor	*Icalto	*Icant
!Bassus	!Tenor	!Altus	!Cantus
*clefF4	*clefGv2	*clefG2	*clefG2
*k[b-]	*k[b-]	*k[b-]	*k[b-]
*G:dor	*G:dor	*G:dor	*G:dor
*M4/2	*M4/2	*M4/2	*M4/2
=127	=127	=127	=127
0r	0r	1d	1r
.	.	[1g	2r
.	.	.	2g
=128	=128	=128	=128
0r	0r	2g]	1.dd
.	.	2f	.
.	.	2g	.
.	.	2a	2cc
=129	=129	=129	=129
0r	0r	2b-	2dd
.	.	2g	2ee
.	.	2.f	2ff
.	.	.	2dd
.	.	4g	.
=130	=130	=130	=130
0r	1r	4a	2cc
.	.	4f	.
.	.	2.b-	2.dd
.	1G	.	.
.	.	4a	4cc
.	.	[2g	[2b-
=131	=131	=131	=131
0r	1.d	2g]	2b-]
.	.	4f	4a
.	.	4e	4g
.	.	2f	1a
.	2c	2e	.
=132	=132	=132	=132
0r	2d	2f	2b-
.	2e	2g	2.cc
.	2f	2a	.
.	.	.	4a
.	2d	2f	2b-
=133	=133	=133	=133
1r	1c	4a	2.cc
.	.	4g	.
.	.	1g	.
.	.	.	4b-
1D	1d	.	1a
.	.	2f	.
=134	=134	=134	=134
1.G	2r	1b-	1g
.	2G	.	.
.	[1d	1a	1r
2F	.	.	.
=135	=135	=135	=135
2G	2d]	0r	0r
2A	2c	.	.
2B-	2d	.	.
2A	2e	.	.
=136	=136	=136	=136
4A	0f	1r	1a
4G	.	.	.
4F	.	.	.
4E	.	.	.
1D	.	2r	[1dd
.	.	2d	.
=137	=137	=137	=137
0r	1e	1g	2dd]
.	.	.	2cc
.	2d	2f	2dd
.	2c	2g	2ee
=138	=138	=138	=138
0r	2f	2a	2ff
.	2g	2b-	2dd
.	4e	2g	2.cc
.	4c	.	.
.	[2f	[2a	.
.	.	.	4b-
=139	=139	=139	=139
0r	4f]	4a]	2cc
.	4e	4g	.
.	4d	4f	1dd
.	4c	4e	.
.	2B-	2d	.
.	2c	[2g	4cc
.	.	.	4b-
=140	=140	=140	=140
1r	1d	2g]	1a
.	.	1f	.
1c	2r	.	1g
.	[2g	2e	.
=141	=141	=141	=141
1B-	2g]	2d	1r
.	1f	2d	.
1A	.	1c	1cc
.	[2e	.	.
=142	=142	=142	=142
1G	2e]	2r	1b-
.	2.d	2d	.
1F	.	2.f	1a
.	4c	.	.
.	[2c	.	.
.	.	4e	.
=143	=143	=143	=143
0G	2c]	1.d	1.g
.	4B	.	.
.	4A	.	.
.	2B	.	.
.	2B	2d	2g
=144	=144	=144	=144
1r	1c	1e	1g
[1c	[1e	[1g	2r
.	.	.	[2cc
=145	=145	=145	=145
2c]	2e]	2g]	2cc]
2c	2e	2a	2cc
1B-	1f	1b-	1dd
=146	=146	=146	=146
1F	2f	1a	2cc
.	2.a	.	2.ff
1C	.	1cc	.
.	4g	.	4ee
.	2g	.	2ee
=147	=147	=147	=147
2D	2f	2.a	2dd
2A	2e	.	2cc
.	.	4g	.
2.D	1d	[1f	2b-
.	.	.	4a
4E	.	.	4g
=148	=148	=148	=148
2F	2.c	2f]	2a
2C	.	2e	1g
.	4B-	.	.
1D	1A	1d	.
.	.	.	2f#
=149	=149	=149	=149
2r	2G	2.B-	1g
2G	2d	.	.
.	.	4A	.
2G	2e-	1G	1r
[2B-	[2d	.	.
=150	=150	=150	=150
4B-]	4d]	0r	0r
4B-	4d	.	.
2A	2c	.	.
2G	2B-	.	.
2F	2A	.	.
=151	=151	=151	=151
1.G	2.B-	2r	2r
.	.	2g	2dd
.	8A	.	.
.	8G	.	.
.	4B-	2g	2ee-
.	4c	.	.
2G	4d	[2b-	[2dd
.	4e	.	.
=152	=152	=152	=152
1F	2f	4b-]	4dd]
.	.	4b-	4dd
.	2F	2a	2cc
1r	2G	2g	2b-
.	[2d	2f#	2a
=153	=153	=153	=153
1.G	2d]	1.g	2.b-
.	2G	.	.
.	.	.	8a
.	.	.	8g
.	2d	.	2b-
2C	2e-	2g	2cc
=154	=154	=154	=154
2.D	2.d	1f#	1a
4E	8c	.	.
.	8B-	.	.
2F#	2A	1r	1r
2G	[2d	.	.
=155	=155	=155	=155
1E	2d]	2r	1r
.	2c#	1g	.
1D	1d	.	2r
.	.	2f	[2dd
=156	=156	=156	=156
0r	0r	2b-	2dd]
.	.	2a	2cc
.	.	2f	2ff
.	.	2g	2ee
=157	=157	=157	=157
2r	0r	2a	2cc
1G	.	1b-	2dd
.	.	.	2ee
2F	.	4a	2ff
.	.	4g	.
=158	=158	=158	=158
2B-	0r	4f	2dd
.	.	4g	.
2A	.	1a	2.cc
2F	.	.	.
.	.	.	4a
2G	.	4g	2b
.	.	4f	.
=159	=159	=159	=159
2A	0r	2e	2cc#
2B-	.	2d	1dd
2G	.	1e	.
2A	.	.	2cc#
=160	=160	=160	=160
2B-	2r	2d	1dd
1G	1d	1b-	.
.	.	.	2g
2F#	2d	2a	2a
=161	=161	=161	=161
1G	1d	1g	1b
1C	1e	1g	[1cc
=162	=162	=162	=162
1F	1f	1a	2cc]
.	.	.	2cc
2G	2.d	2.g	2.b-
2G	.	.	.
.	4d	4g	4b-
=163	=163	=163	=163
2D	1d	2f	2a
1d	.	1a	1ff
.	1A	.	.
2c#	.	2a	2ee
=164	=164	=164	=164
2.d	2r	2a	2.ff
.	1B-	2d	.
4c	.	.	4ee
2B-	.	2.f	2dd
2A	2c	.	2cc
.	.	8e	.
.	.	8f	.
=165	=165	=165	=165
2.G	2d	0g	0b-
.	2d	.	.
4F	.	.	.
1E-	1e-	.	.
=166	=166	=166	=166
1B-	2d	1f	2b-
.	2d	.	2ff
1r	2d	1a	2ff
.	2c#	.	2ee
=167	=167	=167	=167
0r	2.d	2a	2.ff
.	.	2d	.
.	4c	.	4ee
.	2B-	2f	2dd
.	2A	2f	2cc
=168	=168	=168	=168
2r	1G	2.g	1b-
2d	.	.	.
.	.	4f	.
2d	2A	1e	1a
2c#	[2a	.	.
=169	=169	=169	=169
2.d	2a]	2f	2r
.	2d	1B-	1dd
4c	.	.	.
2B-	2f	.	.
2A	2f	2c	2cc
=170	=170	=170	=170
1G	2g	2.d	2b-
.	1d	.	2b-
.	.	4e	.
1A	.	4f	1a
.	.	8e	.
.	.	8d	.
.	2c	2e	.
=171	=171	=171	=171
2r	2B-	2f	0dd
1G	2B-	2g	.
.	1A	2r	.
2F	.	[2d	.
=172	=172	=172	=172
2E	2.G	2d]	1gg
2E	.	2c#	.
.	4A	.	.
2.D	4B-	4d	[1ff
.	4c	4e	.
.	[2d	4f	.
4E	.	4g	.
=173	=173	=173	=173
4F	2d]	4a	2ff]
4G	.	4b-	.
4A	2.c	2.cc	4ee
4B-	.	.	4dd
1c	.	.	4ee
.	4d	4b-	4ff
.	4e	4g	[2gg
.	4f	4a	.
=174	=174	=174	=174
1G	2.g	1b-	4gg]
.	.	.	4ff
.	.	.	4ee
.	4f	.	4dd
1A	4e	1a	4cc
.	4d	.	4dd
.	2c	.	[2ee
=175	=175	=175	=175
2.F	1f	0a	4ee]
.	.	.	4dd
.	.	.	1dd
4G	.	.	.
1A	1e	.	.
.	.	.	2cc#
=176	=176	=176	=176
2.B-	[0d	1f	2.dd
4A	.	.	4cc
1G	.	1g	1b-
=177	=177	=177	=177
0D	0d]	0f#	0a
*-	*-	*-	*-
!! Et unam sanctam
**kern	**kern	**kern	**kern	**kern	**kern	**kern	**kern
*ICvox	*ICvox	*ICvox	*ICvox	*ICvox	*ICvox	*ICvox	*ICvox
*Ibass	*Itenor	*Icalto	*Icant	*Ibass	*Itenor	*Icalto	*Icant
!Bassus	!Tenor	!Altus	!Cantus	!Bassus	!Tenor	!Altus	!Cantus
*clefF4	*clefGv2	*clefG2	*clefG2	*clefF4	*clefGv2	*clefG2	*clefG2
*k[b-]	*k[b-]	*k[b-]	*k[b-]	*k[b-]	*k[b-]	*k[b-]	*k[b-]
*G:dor	*G:dor	*G:dor	*G:dor	*G:dor	*G:dor	*G:dor	*G:dor
*M4/2	*M4/2	*M4/2	*M4/2	*M4/2	*M4/2	*M4/2	*M4/2
=178	=178	=178	=178	=178	=178	=178	=178
0r	0r	0r	0r	1r	1A	1r	1r
.	.	.	.	1D	[1d	1f#	1a
=179	=179	=179	=179	=179	=179	=179	=179
0r	0r	0r	0r	2G	2d]	2g	2b
.	.	.	.	2G	2d	2g	2b
.	.	.	.	1C	1e	1g	1cc
=180	=180	=180	=180	=180	=180	=180	=180
0r	0r	0r	0r	2F	1.f	1.a	1cc
.	.	.	.	4F	.	.	.
.	.	.	.	4G	.	.	.
.	.	.	.	4A	.	.	1cc
.	.	.	.	4B-	.	.	.
.	.	.	.	2c	2e	2g	.
=181	=181	=181	=181	=181	=181	=181	=181
1r	0r	1r	1r	2B-	4f	2.b-	1.dd
.	.	.	.	.	4d	.	.
.	.	.	.	2G	1g	.	.
.	.	.	.	.	.	8a	.
.	.	.	.	.	.	8g	.
1D	.	2r	2r	1d	.	2a	.
.	.	2d	2a	.	2f#	2a	2dd
=182	=182	=182	=182	=182	=182	=182	=182
2G	2r	2d	2b	1G	1g	1g	1dd
2G	2d	2g	2b	.	.	.	.
2C	2g	2.e	2.cc	1r	1r	1r	1r
2C	2g	.	.	.	.	.	.
.	.	4e	4cc	.	.	.	.
=183	=183	=183	=183	=183	=183	=183	=183
2F	2c	1.a	1cc	0r	0r	0r	0r
4F	2f	.	.	.	.	.	.
4G	.	.	.	.	.	.	.
4A	1e	.	1cc	.	.	.	.
4B-	.	.	.	.	.	.	.
2c	.	2g	.	.	.	.	.
=184	=184	=184	=184	=184	=184	=184	=184
2B-	2f	2.b-	2.dd	1r	0r	1r	0r
2G	1g	.	.	.	.	.	.
.	.	8a	4dd	.	.	.	.
.	.	8g	.	.	.	.	.
1d	.	2a	[1dd	2r	.	2r	.
.	2f#	2a	.	2D	.	2a	.
=185	=185	=185	=185	=185	=185	=185	=185
1G	1g	1g	1dd]	2.G	2r	2.b-	1r
.	.	.	.	.	2G	.	.
.	.	.	.	4G	.	4b-	.
1r	1r	1r	1r	2G	2.d	2b-	2r
.	.	.	.	2G	.	2b-	2dd
.	.	.	.	.	4d	.	.
=186	=186	=186	=186	=186	=186	=186	=186
1r	0r	0r	0r	2F	2d	2a	2.ff
.	.	.	.	2D	2d	2f	.
.	.	.	.	.	.	.	4ff
2r	.	.	.	1F	2c	1a	2ff
2F	.	.	.	.	2A	.	2ff
=187	=187	=187	=187	=187	=187	=187	=187
2.c	2r	1r	1r	0C	0c	0g	2ee
.	2c	.	.	.	.	.	2cc
4c	.	.	.	.	.	.	.
2c	2.g	2r	2r	.	.	.	1ee
2c	.	2g	2g	.	.	.	.
.	4g	.	.	.	.	.	.
=188	=188	=188	=188	=188	=188	=188	=188
2B-	2g	2.b-	2.dd	0r	1G	0r	1dd
2G	2g	.	.	.	.	.	.
.	.	4b-	4dd	.	.	.	.
1B-	2f	2b-	2dd	.	1r	.	1r
.	2d	2b-	2dd	.	.	.	.
=189	=189	=189	=189	=189	=189	=189	=189
1F	1f	2a	2cc	0r	0r	0r	0r
.	.	2f	2a	.	.	.	.
2r	2f	2a	1cc	.	.	.	.
[2c	4e	2g	.	.	.	.	.
.	4d	.	.	.	.	.	.
=190	=190	=190	=190	=190	=190	=190	=190
2c]	2e	2r	2g	0r	0r	0r	0r
2F	1f	1a	1cc	.	.	.	.
[1c	.	.	.	.	.	.	.
.	2e	2g	2cc	.	.	.	.
=191	=191	=191	=191	=191	=191	=191	=191
2c]	2e	2.g	2cc	0r	0r	0r	0r
2c	2e	.	2cc	.	.	.	.
.	.	4a	.	.	.	.	.
1B-	1f	1b-	1dd	.	.	.	.
=192	=192	=192	=192	=192	=192	=192	=192
2F	2.f	1a	2cc	0r	0r	0r	0r
4D	.	.	1ff	.	.	.	.
4E	4g	.	.	.	.	.	.
4F	1a	2r	.	.	.	.	.
4G	.	.	.	.	.	.	.
4A	.	[2cc	[2ee	.	.	.	.
4B-	.	.	.	.	.	.	.
=193	=193	=193	=193	=193	=193	=193	=193
2c	2g	2cc]	2ee]	0r	1r	0r	0r
2d	2f	2a	1dd	.	.	.	.
1A	1e	1a	.	.	2r	.	.
.	.	.	2cc#	.	[2a	.	.
=194	=194	=194	=194	=194	=194	=194	=194
1D	1d	1a	1dd	2r	4a]	2r	2r
.	.	.	.	.	4g	.	.
.	.	.	.	1d	4f	1a	1ff
.	.	.	.	.	4e	.	.
1r	1r	1r	1r	.	2d	.	.
.	.	.	.	2c#	2e	2a	2ee
=195	=195	=195	=195	=195	=195	=195	=195
1r	1r	1r	2r	1d	1f#	1a	2.dd
.	.	.	2.dd	.	.	.	.
.	.	.	.	.	.	.	4cc
2r	2r	2r	.	1G	1g	1g	2b-
.	.	.	4cc	.	.	.	.
[2G	[2d	[2b-	4b-	.	.	.	2g
.	.	.	4a	.	.	.	.
=196	=196	=196	=196	=196	=196	=196	=196
2G]	2d]	2b-]	2g	0r	0r	0r	0r
2F#	2d	2a	2a	.	.	.	.
1G	1d	1g	1b	.	.	.	.
=197	=197	=197	=197	=197	=197	=197	=197
1C	1c	1g	1cc	2.c	2.e	2.g	2.cc
.	.	.	.	4c	4e	4g	4cc
1r	1r	1r	1r	2c	2e	2g	2cc
.	.	.	.	2c	2e	2g	2cc
=198	=198	=198	=198	=198	=198	=198	=198
2.F	2.c	2.f	2.a	1F	1f	1a	1cc
4F	4c	4f	4a	.	.	.	.
2F	2c	2f	2cc	1A	1F	[1f	1a
2F	2A	2f	2cc	.	.	.	.
=199	=199	=199	=199	=199	=199	=199	=199
1BB-	1d	1f	4b-	0B-	2r	1f]	2.ff
.	.	.	4cc	.	.	.	.
.	.	.	4dd	.	4B-	.	.
.	.	.	4ee	.	4c	.	4ee
1BB-	1d	[1f	2ff	.	4d	1b-	1dd
.	.	.	.	.	4e	.	.
.	.	.	2b-	.	[2f	.	.
=200	=200	=200	=200	=200	=200	=200	=200
1F	2.c	2f]	1.cc	1F	2f]	1a	1ff
.	.	2a	.	.	1c	.	.
.	4d	.	.	.	.	.	.
1C	2e	2g	.	1c	.	1cc	1ee
.	2c	4e	2g	.	[2g	.	.
.	.	4f	.	.	.	.	.
=201	=201	=201	=201	=201	=201	=201	=201
0G	2.d	4g	4g	0G	4g]	2.b-	0dd
.	.	4f	4a	.	4f	.	.
.	.	4g	4b-	.	2g	.	.
.	4c	4a	4cc	.	.	4a	.
.	4B-	1b-	1dd	.	1d	1g	.
.	4G	.	.	.	.	.	.
.	2g	.	.	.	.	.	.
=202	=202	=202	=202	=202	=202	=202	=202
0D	4f	2.a	0dd	2r	2r	2r	2r
.	4d	.	.	.	.	.	.
.	4f	.	.	2d	2d	2a	2ff
.	4g	4g	.	.	.	.	.
.	1a	4f	.	1d	1f	1a	1ff
.	.	4e	.	.	.	.	.
.	.	2d	.	.	.	.	.
=203	=203	=203	=203	=203	=203	=203	=203
0r	0r	0r	0r	2c	2g	2cc	2ee
.	.	.	.	2A	2a	2cc	2cc
.	.	.	.	1B-	1f	1b-	1dd
=204	=204	=204	=204	=204	=204	=204	=204
0r	0r	0r	0r	1F	0f	1a	2cc
.	.	.	.	.	.	.	2.cc
.	.	.	.	2r	.	2.cc	.
.	.	.	.	.	.	.	4b-
.	.	.	.	[2F	.	.	4a
.	.	.	.	.	.	4b-	4g
=205	=205	=205	=205	=205	=205	=205	=205
0r	0r	0r	0r	4F]	2.f	4a	4f
.	.	.	.	4E	.	4g	4g
.	.	.	.	4D	.	1f	2a
.	.	.	.	4C	4e	.	.
.	.	.	.	2BB-	2d	.	2b-
.	.	.	.	2F	2c	2f	[2a
=206	=206	=206	=206	=206	=206	=206	=206
0r	0r	1r	0r	2G	2B-	2d	4a]
.	.	.	.	.	.	.	4g
.	.	.	.	2E-	2G	2c	1g
.	.	2r	.	1D	1A	2.d	.
.	.	2d	.	.	.	.	2f#
.	.	.	.	.	.	4c	.
=207	=207	=207	=207	=207	=207	=207	=207
2r	1r	1d	2r	0G	4G	4B-	1g
.	.	.	.	.	4A	4A	.
2G	.	.	2b-	.	4B-	2G	.
.	.	.	.	.	4c	.	.
1G	2r	2B-	1b-	.	1d	1r	1r
.	2d	2d	.	.	.	.	.
=208	=208	=208	=208	=208	=208	=208	=208
2F	1d	0f	2a	0r	0r	0r	0r
2D	.	.	2f	.	.	.	.
1F	2c	.	1a	.	.	.	.
.	2A	.	.	.	.	.	.
=209	=209	=209	=209	=209	=209	=209	=209
1C	2c	2.e	2g	0r	0r	0r	0r
.	2c	.	2.gg	.	.	.	.
.	.	4d	.	.	.	.	.
2r	2.g	1c	.	.	.	.	.
.	.	.	4ff	.	.	.	.
[2c	.	.	4ee	.	.	.	.
.	4f	.	4dd	.	.	.	.
=210	=210	=210	=210	=210	=210	=210	=210
4c]	4e	2.cc	4cc	0r	0r	0r	0r
4B-	4d	.	4dd	.	.	.	.
4A	2.c	.	2ee	.	.	.	.
4G	.	4b-	.	.	.	.	.
2F	.	2a	2ff	.	.	.	.
.	4d	.	.	.	.	.	.
2c	2e	2g	[2ee	.	.	.	.
=211	=211	=211	=211	=211	=211	=211	=211
2B-	2f	1b-	4ee]	1r	1r	2r	1r
.	.	.	4dd	.	.	.	.
2G	2g	.	1dd	.	.	2d	.
1A	1e	2a	.	2r	2r	[1a	2r
.	.	2a	2cc#	2A	2a	.	2ee
=212	=212	=212	=212	=212	=212	=212	=212
2r	1d	2r	2dd	1d	2f	1a]	1ff
2D	.	2a	2dd	.	1d	.	.
1G	2r	1b	1dd	2G	.	1g	2dd
.	2G	.	.	2G	[2g	.	2dd
=213	=213	=213	=213	=213	=213	=213	=213
2C	1G	2cc	2ee	1c	2g]	1e	1cc
2C	.	2cc	2ee	.	1c	.	.
1F	2A	2a	1ff	1F	.	1a	1cc
.	2A	2f	.	.	[2f	.	.
=214	=214	=214	=214	=214	=214	=214	=214
1BB-	1B-	2r	2dd	1B-	4f]	1f	1b-
.	.	.	.	.	4e	.	.
.	.	1f	2.ff	.	2d	.	.
1F	1A	.	.	1F	1f	1a	1cc
.	.	.	4ee	.	.	.	.
.	.	2f	4cc	.	.	.	.
.	.	.	4dd	.	.	.	.
=215	=215	=215	=215	=215	=215	=215	=215
1C	2.c	1g	2ee	1c	1e	1g	2cc
.	.	.	2cc	.	.	.	2.g
.	4c	.	.	.	.	.	.
1G	1B-	2.b-	1dd	1G	1d	2g	.
.	.	.	.	.	.	.	4a
.	.	.	.	.	.	[2g	4b-
.	.	4cc	.	.	.	.	4g
=216	=216	=216	=216	=216	=216	=216	=216
0D	0A	2dd	0dd	0d	1r	2g]	0a
.	.	2d	.	.	.	4f#	.
.	.	.	.	.	.	4e	.
.	.	2r	.	.	1d	1f#	.
.	.	[2d	.	.	.	.	.
=217	=217	=217	=217	=217	=217	=217	=217
[0G	[0G	4d]	[0dd	[0G	[0d	[0g	[0b
.	.	4c	.	.	.	.	.
.	.	4B	.	.	.	.	.
.	.	4A	.	.	.	.	.
.	.	1B	.	.	.	.	.
=218	=218	=218	=218	=218	=218	=218	=218
0G]	0G]	0B	0dd]	0G]	0d]	0g]	0b]
==	==	==	==	==	==	==	==
*-	*-	*-	*-	*-	*-	*-	*-
!!!CDT: 1525/^1526/-1594/2/2
!!!OCY: Italia
!!!AGN: Mass (Parody)
!!!AST: renaissance, vocal
!!!ASW: Motet (Palestrina)
!!!PWK: Masses, Book 8vce
!!!RNB: Cadence finals: D
!!!YOR: Le Opere Complete, v. 30, p. 110
!!!YOO: Rome, Italy: Fratelli Scalera
!!!END: 1992//
!!!EED: John Miller
!!!YEC: Copyright 2000, John Miller
!!!YEN: United States of America
!!!YEM: Rights to all derivative electronic formats reserved.
!!!YEM: Refer to licensing agreement for further details.
!!!YEM: This file must be accompanied by the licensing agreement.
!!!YEM: A copy of the licensing agreement may be found at http://www.music-cog.ohio-state.edu/HumdrumDatabases/Palestrina/license.txt
!!!EMD: converted to Humdrum by Bret Aarden
